z_dist/img/icons/crypto/near-NEAR.svg

<svg width="64" height="64" viewBox="0 0 64 64" fill="none" xmlns="http://www.w3.org/2000/svg">
<g clip-path="url(#clip0_252_1674)">
<rect y="0.000244141" width="64" height="64" rx="4" fill="white"/>
<path d="M46.5067 10.4536L36.48 25.3336C35.7867 26.3469 37.12 27.5736 38.08 26.7202L47.9467 18.1336C48.2133 17.9202 48.5867 18.0802 48.5867 18.4536V45.2802C48.5867 45.6536 48.1067 45.8136 47.8933 45.5469L18.0267 9.81358C17.0667 8.64024 15.68 8.00024 14.1333 8.00024H13.0667C10.2933 8.00024 8 10.2936 8 13.1202V50.8802C8 53.7069 10.2933 56.0002 13.12 56.0002C14.88 56.0002 16.5333 55.0936 17.4933 53.5469L27.52 38.6669C28.2133 37.6536 26.88 36.4269 25.92 37.2802L16.0533 45.8136C15.7867 46.0269 15.4133 45.8669 15.4133 45.4936V18.7202C15.4133 18.3469 15.8933 18.1869 16.1067 18.4536L45.9733 54.1869C46.9333 55.3602 48.3733 56.0002 49.8667 56.0002H50.9333C53.76 56.0002 56.0533 53.7069 56.0533 50.8802V13.1202C56.0533 10.2936 53.76 8.00024 50.9333 8.00024C49.12 8.00024 47.4667 8.90691 46.5067 10.4536Z" fill="black"/>
</g>
<defs>
<clipPath id="clip0_252_1674">
<rect width="64" height="64" fill="white" transform="translate(0 0.000244141)"/>
</clipPath>
</defs>
</svg>

<svg width="64" height="64" fill="none" xmlns="http://www.w3.org/2000/svg"><g clip-path="url(#clip0_252_1674)"><rect width="64" height="64" rx="4" fill="#fff"/><path d="M46.507 10.454L36.48 25.334c-.693 1.013.64 2.24 1.6 1.386l9.867-8.586c.266-.214.64-.054.64.32V45.28c0 .374-.48.534-.694.267L18.027 9.814C17.067 8.64 15.68 8 14.133 8h-1.066C10.293 8 8 10.294 8 13.12v37.76A5.121 5.121 0 0013.12 56a5.14 5.14 0 004.373-2.453l10.027-14.88c.693-1.013-.64-2.24-1.6-1.387l-9.867 8.534c-.266.213-.64.053-.64-.32V18.72c0-.373.48-.533.694-.266l29.866 35.733c.96 1.173 2.4 1.813 3.894 1.813h1.066a5.121 5.121 0 005.12-5.12V13.12A5.121 5.121 0 0050.933 8a5.165 5.165 0 00-4.426 2.454z" fill="#000"/></g><defs><clipPath id="clip0_252_1674"><path fill="#fff" d="M0 0h64v64H0z"/></clipPath></defs></svg>
